libs/ui/packages/crypto-icons/src/svg/GAME.svg

<svg width="24" height="24" viewBox="0 0 24 24" fill="none">
<path d="M10.4019 9.51367H18.7156V11.3797H10.4019V9.51367ZM18.7156 12.6217H18.7501V17.5289C18.7501 17.5289 12.2649 22.2277 7.22787 17.1149C7.22787 17.1149 4.46787 14.3159 5.46837 10.2389C5.46837 10.2389 6.26187 5.16067 12.2994 4.53892C12.2994 4.53892 16.0246 4.01992 18.4396 6.78442L16.9906 8.20042C16.9906 8.20042 13.9201 5.02192 9.81537 7.51042C9.81537 7.51042 6.46887 9.37567 7.84887 14.0744C7.84887 14.0744 9.36687 18.1514 14.1271 17.3219C14.1271 17.3219 15.7486 16.9529 16.5766 16.2389V14.4877H10.4026V12.6217H18.7156Z" fill="#2D475B"/>
</svg>

<svg width="24" height="24" viewBox="0 0 24 24" fill="none"><path fill="#2d475b" d="M10.402 9.514h8.314v1.866h-8.314zm8.314 3.108h.034v4.907s-6.485 4.699-11.522-.414c0 0-2.76-2.8-1.76-6.876 0 0 .794-5.078 6.831-5.7 0 0 3.726-.52 6.14 2.245L16.992 8.2s-3.07-3.178-7.176-.69c0 0-3.346 1.866-1.966 6.564 0 0 1.518 4.077 6.278 3.248 0 0 1.622-.37 2.45-1.083v-1.751h-6.174v-1.866z"/></svg>
